X: 36835
T: Shiny Side
R: slip jig
M: 9/8
K: Amajor
|:efe ~c2 A BAA|efe ~c2 A Bcd|efe ~c2 A BAA|[M:6/8] ~d2 c BAA:|
M:9/8
|:BBB BAB ~c2 A|ddd def ecA|BBB BAB ~c2 A|[M:6/8] ~d2 c BAA:|

